X: 3556
T: Big Pedlar
R: hornpipe
M: 4/4
K: Dmajor
|:A2 FA GE AG|FD AF GE A,C|A2 FA GE AG|FD AF GE A,C:|
|:de dc Ac eg|fg ef dc AG|FG Ad =cA =cd|=cA GF G2 FG:|

